!!!!SEGMENT: pl-kozmzk--mzk-m-280--003_gizycka-zamoyska-ludmila--trois-improvisations-marie.krn
!!!cenid: 18xx:3050
!!!COM: Giżycka-Zamoyska, Ludmiła
!!!COM-rismid: pe30110123
!!!CDT:
!!!CNT:
!!!GTL: Trois Improvisations
!!!OTL: Marie
!!!PDT:
!!!AGN: Secular; Improvization
!!!SMS-siglum: PL-KOZmzk
!!!SMS-shelfmark: mzk/m/280
!!!SMS-shelfwork: 003 G
!!!SMS-variant:
!!!SMS-altvar:
!!!NIFC-rismid: 1001099002
!!!URL-scan: https://repozytorium.nifc.pl/islandora/object/pl-kozmzk%3A5612/datastream/PDF/view
!!!ONB-nifc:
!!!OMD: Andante.
**kern	**kern	**dynam	**kern	**text	**dynam
*part3	*part2	*part2	*part1	*part1	*part1
*staff3	*staff2	*	*staff1	*staff1	*
*Ipiano	*Ipiano	*	*Iempty	*	*
*I"Piano.	*I"Piano.	*	*I"Chant.	*	*
*clefF4	*clefG2	*	*clefG2	*	*
*k[]	*k[]	*	*k[]	*	*
*C:	*C:	*	*C:	*	*
*M6/8	*M6/8	*	*M6/8	*	*
=1	=1	=1	=1	=1	=1
[4.GG [4.GGG/	8r	p	2.r	.	.
!	!	!LO:HP:a	!	!	!
.	8gL 8e 8c 8G/	<	.	.	.
.	8gJ 8e 8c 8G/	.	.	.	.
8GG]L 8GGG/]	8gL 8e 8c 8G/	.	.	.	.
8FF#X 8FFF#X/	8g 8e 8c 8G/	.	.	.	.
8GGJ 8GGG/	8gJ 8e 8c 8G/	[[	.	.	.
=2	=2	=2	=2	=2	=2
4.AA-X 4.AAA-X/	8r	.	2.r	.	.
!	!	!LO:HP:a	!	!	!
.	8a-XL 8d 8c 8A-X/	>	.	.	.
.	8a-J 8d 8c 8A-/	.	.	.	.
4.GG 4.GGG/	8r	.	.	.	.
.	8gL 8d 8B< 8G< 8F</	]	.	.	.
.	8gJ 8d 8B< 8G< 8F</	.	.	.	.
=3	=3	=3	=3	=3	=3
[<4.GG [4.CC\	8r	pp	4r	.	.
.	8gL 8e 8c 8G</	.	.	.	.
.	8gJ 8e 8c 8G</	.	8r	.	.
8GG]L 8CC\]	8gL 8e 8c 8G</	.	8r	.	.
8FF#X\	8g 8e 8c 8G</	.	8r	.	.
!	!	!	!	!	!LO:DY:a
8GG\J	8gJ 8e 8c 8G</	.	8e/	Tu	p
!!linebreak:original
=4	=4	=4	=4	=4	=4
[<4.C [4.CC\	8r	.	4g/	es	.
.	8gL 8d 8B< 8G< 8F</	.	.	.	.
.	8gJ 8d 8B< 8G< 8F</	.	8d/	la	.
8C]L 8CC\]	8gL 8d 8B< 8G< 8F</	.	4c#X/	mer	.
8FF#X\	8g 8d 8B< 8G< 8F</	.	.	.	.
8GG\J	8gJ 8d 8B< 8G< 8F</	.	8d/	pro-	.
=5	=5	=5	=5	=5	=5
4.C 4.CC/	8r	.	4.f/	-fon-	.
.	8gL 8e 8c 8G/	.	.	.	.
.	8gJ 8e 8c 8G/	.	.	.	.
4BB-X 4BBB-X/	8r	.	4e/	-de,	.
.	8gL 8e 8c#X 8G/	.	.	.	.
8AA 8AAA/	8gJ 8e 8c# 8G/	.	8e/	i-	.
=6	=6	=6	=6	=6	=6
[4.D [4.DD/	8r	.	4f/	-ma-	.
.	8aL 8f 8d 8A/	.	.	.	.
.	8aJ 8f 8d 8A/	.	8a/	-ge	.
8D]L 8DD/]	8aL 8f 8d 8A/	.	4dd\	de	.
8C#X/	8a 8f 8d 8A/	.	.	.	.
8D/J	8aJ 8f 8d 8A/	.	8cc\	l’a-	.
=7	=7	=7	=7	=7	=7
[<4.F [4.FF\	8r	.	4.b\	-zur;	.
.	8gL 8f 8B< 8G</	.	.	.	.
.	8gJ 8f 8B< 8G</	.	.	.	.
8F]L 8FF\]	8gL 8f 8B< 8G</	.	8r	.	.
8E\	8g 8f 8B< 8G</	.	8r	.	.
8F\J	8gJ 8f 8B< 8G</	.	8a/	re-	.
!!linebreak:original
=8	=8	=8	=8	=8	=8
[<4.E [4.EE\	8r	.	4g#X/	-flé-	.
.	8g#XL 8e 8d 8G#X</	.	.	.	.
.	8g#J 8e 8d 8G#</	.	8f/	-tant	.
8E]L 8EE\]	8g#L 8e 8d 8G#</	.	4e/	dans	.
8DD#X\	8g# 8e 8d 8G#</	.	.	.	.
8EE\J	8g#J 8e 8d 8G#</	.	8B/	son	.
=9	=9	=9	=9	=9	=9
[4.AA [4.AAA/	8r	.	4.d/	on-	.
.	8aL 8e 8c 8A/	.	.	.	.
.	8aJ 8e 8c 8A/	.	.	.	.
8AA]L 8AAA/]	8aL 8e-X 8c 8A/	.	4c/	-de	.
8GG#X/	8a 8e- 8c 8A/	.	.	.	.
!	!	!	!	!	!LO:DY:a
8AA/J	8aJ 8e- 8c 8A/	.	8e-X/	un	<
=10	=10	=10	=10	=10	=10
[4.D [4.DD/	8r	<	4d/	ciel	.
.	8aL 8f#X 8c 8A/	.	.	.	.
.	8aJ 8f# 8c 8A/	[	8f#X/	se-	[
!	!	!	!	!	!LO:HP:a
8D]L 8DD/]	8aL 8f# 8c 8A/	.	4b/	-rein	>
8C#X/	8a 8f# 8c 8A/	.	.	.	.
8D/J	8aJ 8f# 8c 8A/	.	8a/	et	]
=11	=11	=11	=11	=11	=11
*^	*	*	*	*	*
!	!LO:N:vis=2	!	!	!	!	!
2.GG/	8GG\L	8r	.	4.g/	pur;	.
.	8Fn\	8g:L 8d: 8B: 8G:/	>	.	.	.
.	8E\J	8gJ 8en 8c 8G/	.	.	.	.
.	8D\L	8gL 8fn 8B 8G/	]	4r	.	.
.	8E\	8g 8e 8c 8G/	.	.	.	.
.	8F\J	8gJ 8d 8B 8G/	.	8e/	la	.
*v	*v	*	*	*	*	*
!!linebreak:original
=12	=12	=12	=12	=12	=12
[<4.GG [4.GGG\	8r	.	4g/	mer	.
.	8gL 8d 8B< 8G< 8F</	.	.	.	.
.	8gJ 8d 8B< 8G< 8F</	.	8d/	a	.
8GG]L 8GGG\]	8gL 8d 8B< 8G< 8F</	.	4c/	des	.
8AA 8AAA\	8g 8d 8B< 8G< 8F</	.	.	.	.
8BBJ 8BBB\	8gJ 8d 8B< 8G< 8F</	.	8d/	a-	.
=13	=13	=13	=13	=13	=13
[4.C [4.CC/	8r	.	4.e-X/	-bî-	.
.	8gL 8e-X 8c 8G/	.	.	.	.
.	8gJ 8e- 8c 8G/	.	.	.	.
8C]L 8CC/]	8gL 8e- 8c 8G/	.	4d/	-mes,	.
8D 8DD/	8g 8e- 8c 8G/	.	.	.	.
8CJ 8CC/	8gJ 8e- 8c 8G/	.	8e-/	tu	.
=14	=14	=14	=14	=14	=14
[4.BB-X [4.BBB-X/	8r	.	4f/	as	.
.	8a-XL 8d 8B-X 8A-X/	.	.	.	.
!	!	!	!	!	!LO:HP:a
.	8a-J 8d 8B- 8A-/	.	8en/	les	<
8BB-]L 8BBB-/]	8a-L 8d 8B- 8A-/	.	4f/	per-	.
8AAn 8AAAn/	8a- 8d 8B- 8A-/	.	.	.	.
8BB-J 8BBB-/	8a-J 8d 8B- 8A-/	.	8f#X/	-les,	[
=15	=15	=15	=15	=15	=15
4.E-X 4.EE-X/	8r	.	[4.g/	l’or,	.
.	8gL 8e-X 8B-X 8G/	.	.	.	.
.	8gJ 8e- 8B- 8G/	.	.	.	.
!	!	!	!	!	!LO:HP:a
4D 4DD/	8r	.	4g/]	.	>
.	8gL 8f 8Bn 8G/	.	.	.	.
8D\	8gJ 8f 8B 8G/	.	8g/	mais	]
!!pagebreak:original
=16	=16	=16	=16	=16	=16
*^	*	*	*	*	*
4.CC/	8CC\L	8r	.	4a/	hum-	.
.	8C\	8gL 8en 8c 8G/	.	.	.	.
.	8C\J	8gJ 8e 8c 8G/	.	8g/	-ble	.
4.DD/	8DD\L	8r	.	4b/	et	.
.	8D\	8gL 8f 8B 8G/	.	.	.	.
.	8D\J	8gJ 8f 8B 8G/	.	8a/	su-	.
=17	=17	=17	=17	=17	=17	=17
4.EE/	8EE\L	8r	.	4.dd\	-bli-	.
.	8E\	8gL 8e 8c 8G/	.	.	.	.
.	8E\J	8gJ 8e 8c 8G/	.	.	.	.
4F#X [4FF#X/	4ryy	8aL 8d#X 8c 8A/	.	4cc\	-me,	.
.	.	8aJ 8d# 8c 8A/	.	.	.	.
8FF#] 8FFF#X/	8ryy	8r	.	8a/	tu	.
*v	*v	*	*	*	*	*
=18	=18	=18	=18	=18	=18
[4.EE [4.EEE/	8r	.	4g#X/	ca-	.
.	8g#XL 8e 8B 8G#X/	.	.	.	.
.	8g#J 8e 8B 8G#/	.	8e/	-ches	.
8EE]L 8EEE/]	8aL 8d#X 8c 8A/	.	4a/	tes	.
8DD#X/	8a 8d# 8c 8A/	.	.	.	.
[8EE/J	8aJ 8d# 8c 8A/	.	8d#X/	tré-	.
=19	=19	=19	=19	=19	=19
4.EE_ [4.EEE/	8r	.	4.e/	-sors;	.
.	8eL 8B 8G#X/	.	.	.	.
.	8eJ 8B 8G#/	.	.	.	.
8EE]L 8EEE/]	8eL 8B 8G#/	.	8r	.	.
8DD#X/	8e 8B 8G#/	p	8r	.	.
!	!	!	!	!	!LO:DY:a
8EE/J	8eJ 8B 8G#/	.	8e/	ton	p
!!linebreak:original
=20	=20	=20	=20	=20	=20
[<4.AA [4.AAA\	8r	.	4e/	coeur	.
.	8eL 8c 8A< 8E</	.	.	.	.
.	8eJ 8c 8A< 8E</	.	8d#X/	a	.
8AA]L 8AAA\]	8eL 8c 8A< 8E</	.	4e/	eu	.
8GG#X\	8e 8c 8A< 8E</	.	.	.	.
8AA\J	8eJ 8c 8A< 8E</	.	8a/	ses	.
=21	=21	=21	=21	=21	=21
[<4.BB [4.BBB\	8r	.	4.g#X/	pei-	.
.	8eL 8d 8G#X< 8E</	.	.	.	.
.	8eJ 8d 8G#< 8E</	.	.	.	.
8BB]L 8BBB\]	8eL 8d 8G#< 8E</	.	4f/	-nes,	.
8AA#X\	8e 8d 8G#< 8E</	.	.	.	.
8BB\J	8eJ 8d 8G#< 8E</	.	8e/	mais,	.
=22	=22	=22	=22	=22	=22
[4.C [4.CC/	8r	.	4e/	lar-	.
.	8ccL 8a 8e 8c/	<	.	.	.
!	!	!	!	!	!LO:HP:a
.	8ccJ 8a 8e 8c/	.	8d#X/	-mes	<
8C]L 8CC/]	8ccL 8a 8e 8c/	.	4e/	et	.
8BB/	8cc 8a 8e 8c/	.	.	.	.
8C/J	8ccJ 8a 8e 8c/	[	8cc\	bon-	[
=23	=23	=23	=23	=23	=23
!	!	!	!	!	!LO:HP:a
[4.D [4.DD/	8r	>	[4.b\	-heur,	>
.	8bL 8f 8d 8B/	.	.	.	.
.	8bJ 8f 8d 8B/	]	.	.	.
8D]L 8DD/]	8bL 8f 8d 8B/	.	4b\]	.	]
8C#X/	8b 8f 8d 8B/	.	.	.	.
8D/J	8bJ 8f 8d 8B/	.	8a/	tu	.
!!linebreak:original
=24	=24	=24	=24	=24	=24
!	!	!	!	!	!LO:DY:a
[4.E [4.EE/	8r	.	4g#X/	les	p
.	8bL 8g#X 8d 8B/	.	.	.	.
.	8bJ 8g# 8d 8B/	.	8f/	off-	.
8E]L 8EE/]	8bL 8g# 8d 8B/	.	4e/	-ris	.
8D#X/	8b 8g# 8d 8B/	.	.	.	.
8E/J	8bJ 8g# 8d 8B/	.	8B/	se-	.
=25	=25	=25	=25	=25	=25
[4.F [4.FF/	8r	.	4.d/	-rei-	.
.	8aL 8f 8c 8A/	.	.	.	.
.	8aJ 8f 8c 8A/	.	.	.	.
8F]L 8FF/]	8aL 8f 8c 8A/	.	4c/	-ne,	.
8E/	8a 8f 8c 8A/	.	.	.	.
8F/J	8aJ 8f 8c 8A/	.	8B/	sou-	.
=26	=26	=26	=26	=26	=26
[4.E-X [4.EE-X/	8r	.	4d/	-mi-	.
.	8aL 8e-X 8c 8A/	<	.	.	.
!	!	!	!	!	!LO:HP:a
.	8aJ 8e- 8c 8A/	.	8c/	-se	<
8E-]L 8EE-/]	8aL 8e- 8c 8A/	.	4B/	au	.
8DD/	8a 8e- 8c 8A/	.	.	.	.
8EE-/J	8aJ 8e- 8c 8A/	[	8A/	Seig-	[
=27	=27	=27	=27	=27	=27
[4.EEn [4.EEEn/	8r	.	4.en/	-neur!	.
.	8enL 8B 8G#X/	>	.	.	.
.	8eJ 8B 8G#/	.	.	.	.
8EE]L 8EEE/]	8eL 8B 8G#/	.	4r;	.	.
8DD#X/	8e 8B 8G#/	] pp	.	.	.
!	!	!	!	!	!LO:DY:a
8EE/J	8eJ 8B 8G#/	.	8e/	Voi-	pp
!!linebreak:original
=28	=28	=28	=28	=28	=28
*^	*	*	*	*	*
!	!LO:N:vis=2	!	!	!	!	!
2.GG/	8GG\L	8r	.	4g/	-là,	.
.	8F\	8gnL 8d 8B 8Gn/	.	.	.	.
.	8F\J	8gJ 8d 8B 8G/	.	8d/	dou-	.
.	8F\L	8gL 8d 8B 8G/	.	4c#X/	-ce	.
.	8F\	8g 8d 8B 8G/	.	.	.	.
.	8F\J	8gJ 8d 8B 8G/	.	8d/	Ma-	.
=29	=29	=29	=29	=29	=29	=29
4.CC/	8CC\L	8r	.	4.f/	-ri-	.
.	8C\	8gL 8e 8c 8G/	.	.	.	.
.	8C\J	8gJ 8e 8c 8G/	.	.	.	.
4.AAA/	8AAA\L	8r	.	4e/	-e,	.
.	8AA\	8aL 8e 8c#X 8A 8G/	.	.	.	.
.	8AA\J	8aJ 8e 8c# 8A 8G/	.	8e/	pour-	.
=30	=30	=30	=30	=30	=30	=30
!	!	!	!	!	!	!LO:DY:a
2.D/	8DD\L	8r	.	4f/	-quoi,	<
.	8F\	8aL 8f 8d 8A/	.	.	.	.
.	8F\J	8aJ 8f 8d 8A/	.	8a/	en	.
.	8F\L	8aL 8f 8d 8A/	.	4dd\	te	.
.	8F\	8a 8f 8d 8A/	.	.	.	.
.	8F\J	8aJ 8f 8d 8A/	.	8cc\	voy-	[
=31	=31	=31	=31	=31	=31	=31
!	!LO:N:vis=2	!	!	!	!	!
2.FF/	8FF\L	8r	.	[4.b\	-ant,	.
.	8F\	8gL 8f 8B 8G/	.	.	.	.
.	8F\J	8gJ 8f 8B 8G/	.	.	.	.
.	8F\L	8gL 8f 8B 8G/	.	4b\]	.	.
.	8F\	8g 8f 8B 8G/	.	.	.	.
.	8F\J	8gJ 8f 8B 8G/	.	8a/	on	.
*v	*v	*	*	*	*	*
!!pagebreak:original
=32	=32	=32	=32	=32	=32
!	!	!	!	!	!LO:HP:a
[4.E [4.EE/	8r	.	4g/	pense	<
.	8aL 8g 8c#X 8A/	.	.	.	.
.	8aJ 8g 8c# 8A/	.	8b-X/	au	[
8E]L 8EE/]	8aL 8g 8c# 8A/	.	4a/	ciel,	.
8DD#X/	8a 8g 8c# 8A/	.	.	.	.
8EE/J	8aJ 8g 8c# 8A/	.	8e/	on	.
=33	=33	=33	=33	=33	=33
[4.DD [4.DDD/	8r	.	4.g/	pri-	.
.	8aL 8f 8d 8A/	.	.	.	.
.	8aJ 8f 8d 8A/	.	.	.	.
8DD]L 8DDD/]	8a-XL 8f 8d 8A-X/	.	4f/	-e,	.
8CC#X/	8a- 8f 8d 8A-/	.	.	.	.
!	!	!	!	!	!LO:DY:a
8DD/J	8a-J 8f 8d 8A-/	<	8d/	et	<
=34	=34	=34	=34	=34	=34
*^	*	*	*	*	*
4.GG/	8GGL 8GGG\	8r	[	4c/	t’ai-	.
.	8E\	8gL 8e 8c 8G/	.	.	.	[
.	8E\J	8gJ 8e 8c 8G/	.	8e/	-me,	.
!	!	!	!	!	!	!LO:DY:a
4.GG/	8GGL 8GGG\	8r	<	4b/	t’ai-	<
.	8F#X\	8aL 8e-X 8c 8A/	.	.	.	.
.	8F#\J	8aJ 8e- 8c 8A/	[	8a/	-me	[
!!linebreak:original
=35	=35	=35	=35	=35	=35	=35
!	!LO:N:n=1:vis=2	!	!	!	!	!
2.GG/	8GGL 8GGG\	8r	<	[4.g/	ten-	.
.	8Fn\	8g:L 8d: 8B: 8G:/	.	.	.	.
.	8E\J	8g:J 8en: 8c: 8G:/	[	.	.	.
!	!	!	!	!	!	!LO:DY:a
.	8D\L	8g:L 8f: 8B: 8G:/	>	4g/]	.	>
.	8E\	8g: 8e: 8c: 8G:/	.	.	.	.
.	8F\J	8g:J 8d: 8B: 8G:/	]]	8B/	-dre-	]]
=36	=36	=36	=36	=36	=36	=36
4.CC/	8CC\L	8r	.	4.c/	-ment!	.
.	8E 8GG\	8ccL 8g 8e 8c/	.	.	.	.
.	8EJ 8GG\	8ccJ 8g 8e 8c/	.	.	.	.
4ryy	8EL 8GG\	8ccL 8g 8e 8c/	.	4r	.	.
.	8E 8GG\	8cc 8g 8e 8c/	.	.	.	.
8ryy	8EJ 8GG\	8ccJ 8g 8e 8c/	.	8r	.	.
=37	=37	=37	=37	=37	=37	=37
!	!LO:N:vis=2	!	!	!	!	!
2.CC/	8CC\L	8r	.	2.r	.	.
.	8F 8AA-X\	8ccc:L 8aa-X: 8ff: 8cc:\	>	.	.	.
.	8FJ 8AA-\	8ccc:J 8aa-: 8ff: 8cc:\	.	.	.	.
.	8FL 8AA-\	8ccc:L 8aa-: 8ff: 8cc:\	.	.	.	.
.	8F 8AA-\	8ccc: 8aa-: 8ff: 8cc:\	.	.	.	.
.	8FJ 8AA-\	8ddd:J 8aa-: 8ff: 8dd:\	]]	.	.	.
*v	*v	*	*	*	*	*
=38	=38	=38	=38	=38	=38
2.E: 2.GG: 2.CC;:/	2.eee: 2.ccc: 2.gg: 2.ee;:\	.	2.r;	.	.
==	==	==	==	==	==
*-	*-	*-	*-	*-	*-
!!!system-decoration: s1[(s2,s3)]
!!!RDF**kern: > = above
!!!RDF**kern: < = below
!!!AIN: 1 empty 2 piano
!!!ENC: Katarzyna Serwa
!!!END: 2021-10-24
!!!ENC: Marcin Jachim
!!!END: 2021-09-09
